ui_kit/lib/assets/icons/peer_remove.svg

<svg width="24" height="24" viewBox="0 0 24 24" fill="none" xmlns="http://www.w3.org/2000/svg">
<path fill-rule="evenodd" clip-rule="evenodd" d="M8.80003 5.6C7.47455 5.6 6.40003 6.67452 6.40003 8C6.40003 9.32548 7.47455 10.4 8.80003 10.4C10.1255 10.4 11.2 9.32548 11.2 8C11.2 6.67452 10.1255 5.6 8.80003 5.6ZM4.80003 8C4.80003 5.79086 6.5909 4 8.80003 4C11.0092 4 12.8 5.79086 12.8 8C12.8 10.2091 11.0092 12 8.80003 12C6.5909 12 4.80003 10.2091 4.80003 8ZM3.17157 14.7716C3.92172 14.0215 4.93913 13.6001 6 13.6001H11.6C12.6609 13.6001 13.6783 14.0215 14.4284 14.7716C15.1786 15.5218 15.6 16.5392 15.6 17.6001V19.2001C15.6 19.6419 15.2418 20.0001 14.8 20.0001C14.3582 20.0001 14 19.6419 14 19.2001V17.6001C14 16.9635 13.7471 16.3531 13.2971 15.903C12.847 15.4529 12.2365 15.2001 11.6 15.2001H6C5.36348 15.2001 4.75303 15.4529 4.30294 15.903C3.85286 16.3531 3.6 16.9635 3.6 17.6001V19.2001C3.6 19.6419 3.24183 20.0001 2.8 20.0001C2.35817 20.0001 2 19.6419 2 19.2001V17.6001C2 16.5392 2.42143 15.5218 3.17157 14.7716ZM15.6 10.3999C15.1582 10.3999 14.8 10.7581 14.8 11.1999C14.8 11.6418 15.1582 11.9999 15.6 11.9999H20.4C20.8419 11.9999 21.2 11.6418 21.2 11.1999C21.2 10.7581 20.8419 10.3999 20.4 10.3999H15.6Z" fill="white"/>
</svg>

<svg xmlns="http://www.w3.org/2000/svg" width="24" height="24" fill="none" viewBox="0 0 24 24"><path fill="#fff" fill-rule="evenodd" d="M8.8 5.6a2.4 2.4 0 1 0 0 4.8 2.4 2.4 0 0 0 0-4.8ZM4.8 8a4 4 0 1 1 8 0 4 4 0 0 1-8 0Zm-1.628 6.772A4 4 0 0 1 6 13.6h5.6a4 4 0 0 1 4 4v1.6a.8.8 0 0 1-1.6 0v-1.6a2.4 2.4 0 0 0-2.4-2.4H6a2.4 2.4 0 0 0-2.4 2.4v1.6a.8.8 0 0 1-1.6 0v-1.6a4 4 0 0 1 1.172-2.828ZM15.6 10.4a.8.8 0 0 0 0 1.6h4.8a.8.8 0 1 0 0-1.6h-4.8Z" clip-rule="evenodd"/></svg>
